!! J.S. Bach, Die Kunst der Fuge; Fuga 7 in d minor; BWV 1080.
!! Encoded from "Bach; Die Kunst der Fuge", (Carl Czerny, ed.)
!! New York: C.F. Peters Co., pp.20-22; in four voices.
!! Performance duration: 3:54; performance tempo: 62.6 quarter-notes per minute.
!! (Davitt Moroney, harpsichord, "Bach, 'Die Kunst der Fuge'",
!! Harmonia Mundi No. HMC 1169.70)
!! NOTE:  The texture expands to five-voices in bar 56 (to the end, bar 61).
**kern	**kern	**kern	**kern
*d:	*d:	*d:	*d:
*M4/4	*M4/4	*M4/4	*M4/4
*MM62.6	*MM62.6	*MM62.6	*MM62.6
=1	=1	=1	=1
1r	4d	1r	1r
.	8.a	.	.
.	16g	.	.
.	8.f	.	.
.	16e	.	.
.	4d	.	.
=2	=2	=2	=2
1r	4c#	1r	2aa
.	8.d	.	.
.	16e	.	.
.	[4f	.	4.dd
.	16f]	.	.
.	16g	.	.
.	16f	.	8ee
.	16e	.	.
=3	=3	=3	=3
1r	16d	4dd	4.ff
.	16c#	.	.
.	[8d	.	.
.	16d]	8.a	.
.	16d	.	.
.	16cn	.	8gg
.	16Bn	16bn	.
.	16A	8.ccn	2aa
.	16G#	.	.
.	[8A	.	.
.	.	16dd	.
.	16A]	4ee	.
.	16A	.	.
.	16B	.	.
.	16c#	.	.
=4	=4	=4	=4
1r	16d	4ff	2bb-
.	16cn	.	.
.	16B-	.	.
.	16A	.	.
.	16G	8.ee	.
.	16F#	.	.
.	[8G	.	.
.	.	16dd	.
.	16G]	[4cc#	4.aa
.	16B-	.	.
.	16A	.	.
.	16G	.	.
.	8.Fn	16cc#]	.
.	.	16a	.
.	.	16bn	8gg
.	16E	16cc#	.
=5	=5	=5	=5
1D	[4D	16dd	[2ff
.	.	16b-	.
.	.	16a	.
.	.	16g	.
.	16D]	[4f	.
.	16A	.	.
.	16Bn	.	.
.	16c#	.	.
.	[4d	16f]	8ff]
.	.	16a	.
.	.	16bn	8ee
.	.	16cc#	.
.	16d]	[4dd	8ff
.	16A	.	.
.	16G	.	8gg
.	16F	.	.
=6	=6	=6	=6
2.AA	4E	16dd]	[4aa
.	.	16dd	.
.	.	16ccn	.
.	.	16bn	.
.	8.A	[4cc	16aa]
.	.	.	16gg
.	.	.	16ff
.	16G	.	16ee
.	8.F	16cc]	[4dd
.	.	16cc	.
.	.	16b	.
.	16E	16a	.
4BBn	4D	4g#	16dd]
.	.	.	16dd
.	.	.	16ee
.	.	.	16ff
=7	=7	=7	=7
2.C	16C	4a	16ee
.	16D	.	16dd
.	[8E	.	16cc
.	.	.	16bn
.	16E]	8.ee	8a
.	16E	.	.
.	16F#	.	8r
.	16G#	16dd	.
.	4A	8.cc	16r
.	.	.	16ee
.	.	.	16aa
.	.	16bn	16ggn
4D	4r	4a	16ffn
.	.	.	16ee
.	.	.	16dd
.	.	.	16cc
=8	=8	=8	=8
1E	16r	4g#	4bn
.	16Bn	.	.
.	16e	.	.
.	16d	.	.
.	16c	8.a	4r
.	16B	.	.
.	16A	.	.
.	16G#	16bn	.
.	8A	[4cc	16r
.	.	.	16dd
.	8r	.	16ee
.	.	.	16ffn
.	4r	16cc]	[4ggn
.	.	16dd	.
.	.	16cc	.
.	.	16b-	.
=9	=9	=9	=9
1F	4A	[4a	16gg]
.	.	.	16gg
.	.	.	16ff
.	.	.	16ee
.	8.D	16a]	[4ff
.	.	16a	.
.	.	16bn	.
.	16E	16cc#	.
.	8.F	[4dd	16ff]
.	.	.	16gg
.	.	.	16ff
.	16G	.	16ee
.	4A	16dd]	[4dd
.	.	16ccn	.
.	.	16b-	.
.	.	16a	.
=10	=10	=10	=10
2.E	4B-	[4g	16dd]
.	.	.	16ff
.	.	.	16ee
.	.	.	16dd
.	8.A	16g]	[4cc#
.	.	16e	.
.	.	16f	.
.	16G	16g	.
.	[4F	[4a	16cc#]
.	.	.	16cc#
.	.	.	16dd
.	.	.	16ee
4D	16F]	16a]	[4ff
.	16E	16g	.
.	16F	16a	.
.	16G	16bn	.
=11	=11	=11	=11
[1C	[4A	8ccn	16ff]
.	.	.	16ee
.	.	16dd	16ff
.	.	16ee	16gg
.	16A]	[4ff	4aa
.	16G	.	.
.	16A	.	.
.	16B-	.	.
.	8.c	16ff]	[4gg
.	.	16ff	.
.	.	16ee-	.
.	16G	16dd	.
.	8.c	[4ee-	16gg]
.	.	.	16bb-
.	.	.	16aa
.	16B-	.	16gg
=12	=12	=12	=12
4C]	[4A	16ee-]	[4ff#
.	.	16dd	.
.	.	16cc	.
.	.	16b-	.
4AA	16A]	[4cc	16ff#]
.	16D	.	16ff#
.	16E	.	16gg
.	16F#	.	16aa
4BB-	[4G	16cc]	4dd
.	.	16cc	.
.	.	16b-	.
.	.	16a	.
4C	16G]	8g	4ee-
.	16F#	.	.
.	16G	8cc	.
.	16A	.	.
=13	=13	=13	=13
2D	[4B-	16f#	4dd
.	.	16d	.
.	.	16e	.
.	.	16f#	.
.	16B-]	[4g	4r
.	16A	.	.
.	16B-	.	.
.	16c	.	.
2r	[4d	16g]	4a
.	.	16g	.
.	.	16f#	.
.	.	16e	.
.	16d]	4f#	8.dd
.	16c	.	.
.	16B-	.	.
.	16A	.	16cc
=14	=14	=14	=14
16r	[4G	8.g	8.b-
16GG	.	.	.
16AA	.	.	.
16BB-	.	16fn	16a
[4C	16G]	4e-	4g
.	16G	.	.
.	16A	.	.
.	16B-	.	.
16C]	4A	2d	4f#
16AA	.	.	.
16D	.	.	.
16C	.	.	.
16BB-	4r	.	8.g
16AA	.	.	.
16GG	.	.	.
16FF#	.	.	16a
=15	=15	=15	=15
16GG	1r	4.G	[4b-
16BB-	.	.	.
16C	.	.	.
16D	.	.	.
[4E-	.	.	16b-]
.	.	.	16cc
.	.	8A	16b-
.	.	.	16a
16E-]	.	8.B-	[4g
16E-	.	.	.
16D	.	.	.
16C	.	16c	.
8.BBnT	.	4d	16g]
.	.	.	16a-
.	.	.	16g
32AA	.	.	16f
32BB	.	.	.
=16	=16	=16	=16
4C	1r	2e-	16e-
.	.	.	16g
.	.	.	16a
.	.	.	16b-
16C	.	.	[4cc
16D	.	.	.
16E-	.	.	.
16F	.	.	.
4G	.	4.d	16cc]
.	.	.	16cc
.	.	.	16b-
.	.	.	16a
8.F	.	.	16b-
.	.	.	16cc
.	.	8c	16dd
16E-	.	.	16ee-
=17	=17	=17	=17
[4D	[2B-	4B-	16ff
.	.	.	16ee-
.	.	.	16dd
.	.	.	16cc
16D]	.	8.f	[4b-
16E-	.	.	.
16F	.	.	.
16C	.	16e-	.
8BB-	8B-]	8.d	16b-]
.	.	.	16a
8D	8A	.	16g
.	.	16c	16f
4GG	8B-	4B-	16en
.	.	.	16g
.	8c	.	16f
.	.	.	16e
=18	=18	=18	=18
16FF	4A	4d	4.f
16AA	.	.	.
16BB-	.	.	.
16C	.	.	.
16D	8.B-	4r	.
16C	.	.	.
16D	.	.	[8b-
16E-	16c	.	.
[2F	[4d	4r	16b-]
.	.	.	16b-
.	.	.	16a
.	.	.	16g
.	16d]	8r	8a
.	16e-	.	.
.	16d	8a-	16bn
.	16c	.	16cc
=19	=19	=19	=19
4F_	16Bn	8g	16dd
.	16d	.	16bn
.	16e-	8r	16cc
.	16f	.	16dd
16F]	[4g	8r	8g
16E-	.	.	.
16D	.	[8cc	8ee-
16C	.	.	.
2G	8g]	16cc]	4.dd
.	.	16cc	.
.	[8d	16b-	.
.	.	16a	.
.	16d]	[4b-	.
.	16d	.	.
.	16c	.	8een
.	16B-	.	.
=20	=20	=20	=20
4F	4c	16b-]	[2ff
.	.	16b-	.
.	.	16a	.
.	.	16g	.
4r	8.f	16a	.
.	.	16b-	.
.	.	[8cc	.
.	16e-	.	.
4F	8.d	16cc]	8.ff]
.	.	16b-	.
.	.	[8a	.
.	16c	.	16ee-
8.BB-	4B-	16a]	[4dd
.	.	16d	.
.	.	[8g	.
16C	.	.	.
=21	=21	=21	=21
8.D	4.A	8g]	16dd]
.	.	.	16a
.	.	16f	[8dd
16E-	.	16g	.
2F	.	[4a	16dd]
.	.	.	16cc
.	16B-	.	16dd
.	16c	.	16ee-
.	[4d	16a]	[4ff
.	.	16b-	.
.	.	16cc	.
.	.	16a	.
[4G	16d]	[4b-	16ff]
.	16e-	.	16gg
.	16d	.	16ff
.	16c	.	16ee-
=22	=22	=22	=22
8G]	[4B-	16b-]	[4dd
.	.	16b-	.
16F	.	16a	.
16E-	.	16g	.
[4D	16B-]	[2f	16dd]
.	16B-	.	16dd
.	16A	.	16cc
.	16G	.	16b-
16D]	8F	.	16a
16C	.	.	16ee-
16D	8B-	.	8dd
16En	.	.	.
[4F	16B-	16f]	[4cc
.	16B-	16g	.
.	16A	16f	.
.	16G	16en	.
=23	=23	=23	=23
4F]	16A	4f	16cc]
.	16G	.	16b-
.	16F	.	16a
.	16E	.	16g
16r	2.F	8.cc	16a
16BB-	.	.	16g
16AA	.	.	8f
16GG	.	16b-	.
16FF	.	8.a	[4cc
16AA	.	.	.
16BB-	.	.	.
16C	.	16g	.
4D	.	4f	16cc]
.	.	.	16bn
.	.	.	16cc
.	.	.	16dd
=24	=24	=24	=24
16r	2.c	4e	4g
16CC	.	.	.
16C	.	.	.
16BB-	.	.	.
16AA	.	8.f	4r
16GG	.	.	.
16FF	.	.	.
16EE	.	16g	.
16FF	.	[4a	4cc
16C	.	.	.
16F	.	.	.
16E	.	.	.
[4D	4B-	16a]	8.f
.	.	16b-	.
.	.	16a	.
.	.	16g	16g
=25	=25	=25	=25
16D]	2.A	[4f	8.a
16D	.	.	.
16C	.	.	.
16BB-	.	.	16b-
8.AA	.	16f]	4cc
.	.	16g	.
.	.	16f	.
16AA	.	16e-	.
8.BB-	.	16d	4dd
.	.	16en	.
.	.	[8f	.
16BBn	.	.	.
8.C	4G	16f]	8.cc
.	.	16f	.
.	.	[8e	.
16C#	.	.	16b-
=26	=26	=26	=26
8.D	1F	16e]	[4a
.	.	16e	.
.	.	16d	.
16E	.	16c#	.
8.F	.	4d	16a]
.	.	.	16g
.	.	.	16a
16G	.	.	16b-
8.A	.	16cn	[4ccn
.	.	16e	.
.	.	16f	.
16B-	.	16g	.
8.c	.	4a	16cc]
.	.	.	16dd
.	.	.	16cc
16d	.	.	16bn
=27	=27	=27	=27
8G	1E	8.g	16cc
.	.	.	16dd
8r	.	.	16ee
.	.	16a	16ff
4r	.	16b-	[4gg
.	.	16d	.
.	.	16c#	.
.	.	16Bn	.
2r	.	4c#	16gg]
.	.	.	16ff
.	.	.	16ee
.	.	.	16dd
.	.	16r	4cc#
.	.	16b-	.
.	.	16a	.
.	.	16g	.
=28	=28	=28	=28
4D	2.F	16a	4dd
.	.	16g	.
.	.	16f	.
.	.	16e	.
8.A	.	8d	16r
.	.	.	16a
.	.	8r	16bn
16G	.	.	16cc#
8.F	.	16r	16dd
.	.	16a	16ee
.	.	16dd	4ff
16E	.	16ccn	.
4D	4G	16b-	.
.	.	16a	.
.	.	16b-	[8ee
.	.	16g	.
=29	=29	=29	=29
4C#	[1A	8e	16ee]
.	.	.	16ee
.	.	8r	16aa
.	.	.	16gg
8.D	.	4r	16ff
.	.	.	16ee
.	.	.	16dd
16E	.	.	16cc#
[4F	.	4d	16dd
.	.	.	16b-
.	.	.	16a
.	.	.	16g
16F]	.	8.a	16f
16G	.	.	16e
16F	.	.	16d
16E	.	16g	16c#
=30	=30	=30	=30
4D	4A]	8.f	16d
.	.	.	16a
.	.	.	[8dd
.	.	16e	.
8r	4B-	4d	16dd]
.	.	.	16ff
[8G	.	.	16ee
.	.	.	16dd
8G]	4A	4c#	16ee
.	.	.	8aa
4F	.	.	.
.	.	.	16a
.	4G	8.d	16b-
.	.	.	16dd
[8E	.	.	16gg
.	.	16e	16g
=31	=31	=31	=31
8E]	4F	[4f	16a
.	.	.	16cc
16D	.	.	16ff
16C	.	.	16ee
8.BBn	8r	16f]	8.dd
.	.	16g	.
.	[8G	16f	.
16C#	.	16e	16ee
8D	16G]	4d	8a
.	16A	.	.
8BB-	16G	.	[8dd
.	16F	.	.
8GG	8E	4r	16dd]
.	.	.	16ee
8AA	[8A	.	16dd
.	.	.	16ccn
=32	=32	=32	=32
8D	16A]	1r	8ff
.	16B-	.	.
8E	16A	.	[8b-
.	16G	.	.
[4F	16F	.	16b-]
.	16A	.	16cc
.	16d	.	16b-
.	16c	.	16a
16F]	8B-	.	8g
16A	.	.	.
16G	8Bn	.	[8gg
16F	.	.	.
8E	8c	.	16gg]
.	.	.	16bb-
8A	8c#	.	16aa
.	.	.	16gg
=33	=33	=33	=33
8D	16d	1r	8ff#
.	16cn	.	.
8r	16Bn	.	[8ffn
.	16A	.	.
8G	8B	.	16ff]
.	.	.	16aa
8r	[8B-	.	16gg
.	.	.	16ff
8C	16B-]	.	8ee
.	16d	.	.
8r	16c	.	[8ee-
.	16B-	.	.
8F	8A	.	16ee-]
.	.	.	16gg
8r	[8a	.	16ff
.	.	.	16ee-
=34	=34	=34	=34
8BB-	16a]	1r	4dd
.	16a	.	.
[8B-	16g	.	.
.	16f	.	.
16B-]	8e	.	8cc#
16A	.	.	.
16G	8e-	.	[8ccn
16F#	.	.	.
8G	8d	.	8cc]
8A	8c#	.	16b-
.	.	.	16a
8B-	8d	.	16g
.	.	.	16ff
8G	[8g	.	16een
.	.	.	16dd
=35	=35	=35	=35
[4A	16g]	1a	8.cc#
.	16f	.	.
.	16e	.	.
.	16d	.	16dd
16A]	8c#	.	8.ee
16B-	.	.	.
16A	8e	.	.
16G	.	.	16cc#
8.F	8A	.	16dd
.	.	.	16ff
.	8r	.	16ee
16G	.	.	16dd
8A	8r	.	16cc#
.	.	.	16ee
8r	8C#	.	16a
.	.	.	16g
=36	=36	=36	=36
16r	8D	2.d	16f
16BB-	.	.	16g
16AA	8r	.	16f
16GG	.	.	16e
16FF	4r	.	16d
16EE	.	.	16f
16DD	.	.	16b-
16CC#	.	.	16a
4DD	2D	.	16g
.	.	.	16f
.	.	.	16e
.	.	.	16f
16r	.	4e	16g
16G	.	.	16b-
16F	.	.	16dd
16E	.	.	16cc#
=37	=37	=37	=37
16D	4.A	2.f	4dd
16C#	.	.	.
16D	.	.	.
16E	.	.	.
4F	.	.	16r
.	.	.	16dd
.	8G	.	16ccn
.	.	.	16b-
16r	4.F	.	4a
16FF	.	.	.
16GG	.	.	.
16AA	.	.	.
8BB-	.	4g	16r
.	.	.	16cc#
8GG	8E	.	16dd
.	.	.	16ee
=38	=38	=38	=38
16D	2D	1a	16ff
16DD	.	.	16gg
16D	.	.	16ff
16E	.	.	16ee
16F	.	.	4dd
16A	.	.	.
16G	.	.	.
16F	.	.	.
16E	2C#	.	4.aa
16D	.	.	.
16E	.	.	.
16F	.	.	.
16E	.	.	.
16F	.	.	.
16D	.	.	8gg
16E	.	.	.
=39	=39	=39	=39
16F	4.D	1b-	4.ff
16E	.	.	.
16F	.	.	.
16G	.	.	.
16F	.	.	.
16E	.	.	.
16D	8E	.	8ee
16C#	.	.	.
16D	[2F	.	2dd
16Cn	.	.	.
16BB-	.	.	.
16AA	.	.	.
16GG	.	.	.
16AA	.	.	.
16BB-	.	.	.
16GG	.	.	.
=40	=40	=40	=40
16AA	8F]	2.a	2cc#
16GG	.	.	.
16AA	8G	.	.
16BB-	.	.	.
16AA	8F	.	.
16A	.	.	.
16G	8E	.	.
16A	.	.	.
16F	[2D	.	4dd
16A	.	.	.
16d	.	.	.
16c	.	.	.
16B-	.	4g	4ee
16A	.	.	.
16G	.	.	.
16B-	.	.	.
=41	=41	=41	=41
16A	4D]	[1f	[2ff
16G	.	.	.
16F	.	.	.
16E	.	.	.
16D	8r	.	.
16C	.	.	.
16BB-	[8C#	.	.
16AA	.	.	.
4BB-	16C#]	.	8ff]
.	16E	.	.
.	16D	.	8gg
.	16C#	.	.
[4AA	16D	.	8ff
.	16E	.	.
.	16F	.	8ee
.	16G	.	.
=42	=42	=42	=42
4AA]	16A	4f]	16dd
.	16G	.	16a
.	16F	.	[8dd
.	16G	.	.
4r	4A	4e	16dd]
.	.	.	16ee
.	.	.	16dd
.	.	.	16cc#
2r	16r	4f	8dd
.	16e-	.	.
.	16d	.	8aa
.	16cn	.	.
.	16B-	4g	8.dd
.	16A	.	.
.	8G	.	.
.	.	.	16ee
=43	=43	=43	=43
16r	4d	4a	8.ff
16B-	.	.	.
16A	.	.	.
16G	.	.	16gg
16F	8r	8.d	4aa
16E	.	.	.
8D	[8d	.	.
.	.	16e	.
2r	16d]	8.f	4bb-
.	16c#	.	.
.	16d	.	.
.	16e	16g	.
.	16f	4a	8.aa
.	16g	.	.
.	16f	.	.
.	16e	.	16gg
=44	=44	=44	=44
16r	4d	4b-	[4ff
16G	.	.	.
16A	.	.	.
16B-	.	.	.
8c	[2.c	8.a	16ff]
.	.	.	16ee
8C	.	.	16ff
.	.	16g	16gg
8F	.	[4f	16aa
.	.	.	16ff
8G	.	.	16ee
.	.	.	16dd
8A	.	16f]	8cc
.	.	16e	.
8G	.	16f	8r
.	.	16g	.
=45	=45	=45	=45
4F#	16c]	4a	1r
.	16e-	.	.
.	16d	.	.
.	16c	.	.
16r	8.B-	8.dd	.
16D	.	.	.
16En	.	.	.
16F#	16A	16cc	.
16G	4G	8.b-	.
16D	.	.	.
16G	.	.	.
16Fn	.	16a	.
16E-	8r	4g	.
16D	.	.	.
16C	8e-	.	.
16BB-	.	.	.
=46	=46	=46	=46
16C	8A	4f#	1r
16E-	.	.	.
16D	8r	.	.
16C	.	.	.
16BB-	4d	8.g	.
16AA	.	.	.
16GG	.	.	.
16FF#	.	16a	.
16GG	8.G	[4b-	.
16D	.	.	.
[8G	.	.	.
.	16A	.	.
16G]	8.B-	16b-]	.
16F#	.	16cc	.
16G	.	16b-	.
16A	16c	16a	.
=47	=47	=47	=47
16B-	4d	[4g	1r
16G	.	.	.
16A	.	.	.
16B-	.	.	.
8c	4e-	16g]	.
.	.	16f#	.
8C	.	16g	.
.	.	16a	.
4G	8.d	16b-	.
.	.	16cc	.
.	.	16b-	.
.	16c	16a	.
8r	[4B-	16g	.
.	.	16fn	.
8GG	.	16en	.
.	.	16d	.
=48	=48	=48	=48
8.C	16B-]	[4e	1r
.	16G	.	.
.	16A	.	.
16BB-	16B-	.	.
8.AA	[4c	16e]	.
.	.	16e	.
.	.	16f	.
16GG	.	16g	.
4FF	16c]	8a	.
.	16c	.	.
.	16B-	4d	.
.	16A	.	.
4EE	16G	.	.
.	16F	.	.
.	16E	16c	.
.	16D	16B-	.
=49	=49	=49	=49
8.FF	4C	16A	1r
.	.	16c	.
.	.	16d	.
16GG	.	16e	.
[4AA	4r	16f	.
.	.	16g	.
.	.	16a	.
.	.	16b-	.
16AA]	16r	8cc	.
16BB-	16d	.	.
16AA	16c	[8e-	.
16GG	16B-	.	.
16FF	[4A	16e-]	.
16E-	.	16g	.
16D	.	16f	.
16C	.	16e-	.
=50	=50	=50	=50
4BB-	16A]	4d	1dd
.	16D	.	.
.	16E	.	.
.	16F#	.	.
16r	8G	4r	.
16B-	.	.	.
16A	8r	.	.
16G	.	.	.
8F#	4r	16r	.
.	.	16a	.
8D	.	16b-	.
.	.	16cc	.
[4G	16r	16b-	.
.	16fn	16a	.
.	16e	16g	.
.	16d	16f	.
=51	=51	=51	=51
16G]	[4c#	8e	2.aa
16G	.	.	.
16F	.	8ee	.
16E	.	.	.
8.F	16c#]	8.a	.
.	16A	.	.
.	8d	.	.
16D	.	16bn	.
4A	16e	8.cc#	.
.	16f	.	.
.	16e	.	.
.	16d	16dd	.
16r	8c#	4ee	4gg
16AA	.	.	.
16BBn	8r	.	.
16C#	.	.	.
=52	=52	=52	=52
4D	16r	4ff	2.ff
.	16A	.	.
.	16Bn	.	.
.	16c#	.	.
16r	8d	8.ee	.
16E	.	.	.
16F	8r	.	.
16G	.	16dd	.
2A	16r	[4cc#	.
.	16B	.	.
.	16c#	.	.
.	16d	.	.
.	16e	16cc#]	4ee
.	16f	16a	.
.	16g	16bn	.
.	16a	16cc#	.
=53	=53	=53	=53
16r	4f	4dd	1dd
16B-	.	.	.
16A	.	.	.
16G	.	.	.
16F	4r	[4a	.
16E	.	.	.
16D	.	.	.
16F	.	.	.
2BB-	16r	8a]	.
.	16D	.	.
.	16E	16g	.
.	16F#	16a	.
.	16G	8b-	.
.	16A	.	.
.	16B-	[8g	.
.	16G	.	.
=54	=54	=54	=54
4AA	8A	16g]	1cc#
.	.	16a	.
.	8E	16g	.
.	.	16f	.
16r	4r	16e	.
16A	.	16d	.
16G	.	16e	.
16F	.	16f	.
16E	8B-	8g	.
16D	.	.	.
16E	8G	8b-	.
16F	.	.	.
16G	4r	4e	.
16B-	.	.	.
16A	.	.	.
16G	.	.	.
=55	=55	=55	=55
16F	4A	8.a	2.dd
16G	.	.	.
16F	.	.	.
16E	.	16g	.
16D	8.d	8.f	.
16E	.	.	.
[8F	.	.	.
.	16c	16e	.
16F]	8.B-	4d	.
16A	.	.	.
16G	.	.	.
16F	16A	.	.
16E	4G	4c#	4ee
16A	.	.	.
16G	.	.	.
16A	.	.	.
=56	=56	=56	=56
*	*	*	*^
!! Texture expands to five voices.
4D	[4F	8.d	16r	[1ff
.	.	.	16dd	.
.	.	.	16cc	.
.	.	16e	16b-	.
4r	16F]	[4f	[4a	.
.	16F	.	.	.
.	16G	.	.	.
.	16A	.	.	.
2r	[4B-	16f]	16a]	.
.	.	16g	16b-	.
.	.	16f	16a	.
.	.	16e	16g	.
.	16B-]	[4d	8f	.
.	16c	.	.	.
.	16B-	.	16g	.
.	16A	.	16a	.
=57	=57	=57	=57	=57
16r	8G	8d]	8b-	4ff]
16A	.	.	.	.
16G	8r	4b-	8dd	.
16F	.	.	.	.
16E	4r	.	8cc#	4gg
16D	.	.	.	.
16C#	.	16a	[8ee	.
16E	.	16g	.	.
[2AA	16r	8a	8ee]	4ff
.	16BBn	.	.	.
.	16C#	8f	4dd	.
.	16D	.	.	.
.	16E	8g	.	4ee
.	16F	.	.	.
.	16G	8e	8cc#	.
.	16E	.	.	.
=58	=58	=58	=58	=58
16AA]	8A	8f	16dd	[2dd
16G	.	.	16b-	.
16F	8r	8r	16a	.
16E	.	.	16g	.
16D	8r	8r	16f	.
16C	.	.	8a	.
16BB-	[8F	[8d	.	.
16D	.	.	16g#	.
8GG#	8F]	8d]	8bn	16dd]
.	.	.	.	16ee
8r	8r	8r	8r	16dd
.	.	.	.	16cc#
4r	4r	4r	4r	16dd
.	.	.	.	16ee
.	.	.	.	16ff
.	.	.	.	16ee
=59	=59	=59	=59	=59
4r	4r	4r	4r	16gg
.	.	.	.	16ff
.	.	.	.	16ee
.	.	.	.	16dd
8r	8r	8r	8r	16ee
.	.	.	.	16cc#
8BB-	16D	8G#	[8f	[8dd
.	16E	.	.	.
2AA	4F	2A	16f]	4dd]
.	.	.	16d	.
.	.	.	16e	.
.	.	.	16f	.
.	4E	.	16g	4cc#
.	.	.	16a	.
.	.	.	16b-	.
.	.	.	16g	.
=60	=60	=60	=60	=60
[1D	[4B-	4D	16f#	4.dd
.	.	.	16a	.
.	.	.	16g	.
.	.	.	16f#	.
.	16B-]	8r	[4g	.
.	16c	.	.	.
.	16B-	8d	.	8dd
.	16A	.	.	.
.	16G	8e	8g]	8cc#
.	16F#	.	.	.
.	16E	8g	8b-	[8ccn
.	16G	.	.	.
.	4F#	8d	4a	16cc]
.	.	.	.	16ee-
.	.	8A	.	16dd
.	.	.	.	16cc
=61	=61	=61	=61	=61
2D]	2G	4B-	4d	16b-
.	.	.	.	16a
.	.	.	.	16g
.	.	.	.	[16b-
.	.	4E	4c#	16b-]
.	.	.	.	16b-
.	.	.	.	16a
.	.	.	.	16g
2DD;	2D;	2A;	2d;	2f#;
====	====	====	====	====
*-	*-	*-	*-	*-
